packages/dnb-eufemia/assets/icons/mastercard_card.svg

<svg width="16" height="16" viewBox="0 0 16 16" fill="none" xmlns="http://www.w3.org/2000/svg">
<path d="M7.92521 3.48163L7.42502 4.04049L7.92521 3.48163ZM5.91824 5.84437C5.87272 6.25608 6.16958 6.62673 6.58129 6.67224C6.99299 6.71775 7.36364 6.42089 7.40915 6.00918L5.91824 5.84437ZM7.4671 5.6644C7.55876 5.26045 7.30561 4.85868 6.90166 4.76702C6.49772 4.67536 6.09595 4.92852 6.00429 5.33246L7.4671 5.6644ZM8.32265 5.43754C8.44486 5.83332 8.86476 6.05509 9.26054 5.93289C9.65631 5.81069 9.87809 5.39078 9.75589 4.99501L8.32265 5.43754ZM13.4628 5.43754C13.585 5.83332 14.0049 6.05509 14.4007 5.93289C14.7965 5.81069 15.0183 5.39078 14.8961 4.99501L13.4628 5.43754ZM4.33434 10.8466C4.73833 10.938 5.13999 10.6847 5.23148 10.2807C5.32297 9.87675 5.06964 9.47509 4.66566 9.3836L4.33434 10.8466ZM2.25 6.35512C2.25 4.64021 3.64021 3.25 5.35512 3.25V1.75C2.81178 1.75 0.75 3.81178 0.75 6.35512H2.25ZM5.35512 3.25C6.15088 3.25 6.87517 3.54835 7.42502 4.04049L8.42539 2.92278C7.61116 2.19402 6.5341 1.75 5.35512 1.75V3.25ZM8.42539 4.04049C8.97525 3.54835 9.69953 3.25 10.4953 3.25V1.75C9.31631 1.75 8.23926 2.19402 7.42502 2.92278L8.42539 4.04049ZM7.40915 6.00918C7.4221 5.89204 7.44155 5.777 7.4671 5.6644L6.00429 5.33246C5.96629 5.49994 5.93743 5.67077 5.91824 5.84437L7.40915 6.00918ZM7.42502 4.04049C7.84063 4.41247 8.15474 4.89372 8.32265 5.43754L9.75589 4.99501C9.50591 4.1854 9.03947 3.4724 8.42539 2.92278L7.42502 4.04049ZM10.4953 3.25C11.8898 3.25 13.0714 4.16978 13.4628 5.43754L14.8961 4.99501C14.316 3.11639 12.5662 1.75 10.4953 1.75V3.25ZM4.66566 9.3836C3.28233 9.07032 2.25 7.83238 2.25 6.35512H0.75C0.75 8.54836 2.28248 10.3819 4.33434 10.8466L4.66566 9.3836ZM9 8.75H14V7.25H9V8.75ZM14 12.25H9V13.75H14V12.25ZM8.75 12V11.0556H7.25V12H8.75ZM8.75 11.0556V9H7.25V11.0556H8.75ZM14.25 9V11.0556H15.75V9H14.25ZM14.25 11.0556V12H15.75V11.0556H14.25ZM8 11.8056H15V10.3056H8V11.8056ZM9 12.25C8.86193 12.25 8.75 12.1381 8.75 12H7.25C7.25 12.9665 8.0335 13.75 9 13.75V12.25ZM14 13.75C14.9665 13.75 15.75 12.9665 15.75 12H14.25C14.25 12.1381 14.1381 12.25 14 12.25V13.75ZM14 8.75C14.1381 8.75 14.25 8.86193 14.25 9H15.75C15.75 8.0335 14.9665 7.25 14 7.25V8.75ZM9 7.25C8.0335 7.25 7.25 8.0335 7.25 9H8.75C8.75 8.86193 8.86193 8.75 9 8.75V7.25Z" fill="black"/>
</svg>

<svg width="16" height="16" viewBox="0 0 16 16" fill="none" xmlns="http://www.w3.org/2000/svg"><path d="m7.925 3.482-.5.558.5-.558ZM5.918 5.844a.75.75 0 1 0 1.491.165l-1.49-.165Zm1.55-.18a.75.75 0 1 0-1.464-.332l1.463.332Zm.855-.226a.75.75 0 0 0 1.433-.443l-1.433.443Zm5.14 0a.75.75 0 0 0 1.433-.443l-1.433.443Zm-9.129 5.409a.75.75 0 0 0 .332-1.463l-.332 1.463ZM15 12h-.75.75Zm0-1.288h.75H15ZM2.25 6.355A3.105 3.105 0 0 1 5.355 3.25v-1.5A4.605 4.605 0 0 0 .75 6.355h1.5ZM5.355 3.25c.796 0 1.52.298 2.07.79l1-1.117a4.59 4.59 0 0 0-3.07-1.173v1.5Zm3.07.79a3.09 3.09 0 0 1 2.07-.79v-1.5a4.59 4.59 0 0 0-3.07 1.173l1 1.117ZM7.41 6.01c.013-.118.033-.233.058-.346l-1.463-.332a4.595 4.595 0 0 0-.086.512l1.491.165Zm.016-1.97c.416.372.73.854.898 1.398l1.433-.443a4.607 4.607 0 0 0-1.33-2.072L7.424 4.04Zm3.07-.79c1.395 0 2.576.92 2.968 2.188l1.433-.443a4.607 4.607 0 0 0-4.4-3.245v1.5Zm-5.83 6.134A3.107 3.107 0 0 1 2.25 6.355H.75a4.607 4.607 0 0 0 3.584 4.492l.332-1.463Zm3.803-.882H14v-1.5H8.468v1.5ZM14 12.25H8.468v1.5H14v-1.5ZM8.218 12v-1.288h-1.5V12h1.5Zm0-1.288v-1.96h-1.5v1.96h1.5Zm6.032-1.96v1.96h1.5v-1.96h-1.5Zm0 1.96V12h1.5v-1.288h-1.5Zm-6.782.75H15v-1.5H7.468v1.5Zm1 .788a.25.25 0 0 1-.25-.25h-1.5c0 .966.784 1.75 1.75 1.75v-1.5ZM14 13.75A1.75 1.75 0 0 0 15.75 12h-1.5a.25.25 0 0 1-.25.25v1.5Zm0-5.248a.25.25 0 0 1 .25.25h1.5A1.75 1.75 0 0 0 14 7.002v1.5Zm-5.532-1.5a1.75 1.75 0 0 0-1.75 1.75h1.5a.25.25 0 0 1 .25-.25v-1.5Z" fill="#000"/></svg>
